X:553
T: Xiu he bao
N: C0089
O: China,Yunnan, Midu
S: II, 69]
N: Vereinzelt Verzierungen. Vor- und Zwischenspiele weggelassen.
N: Der Text der 2. Strophe wird z.T. auf andere Noten gesungen.
N: Die Saengerin Lei Huilan ist Angehoerige der Zhuang Minderheit und
N: studiert an der Guangzhouer Musikhochschule. +++ ANderes Lied!!! +++
N: Aufgenommen am 5.5.87
N: +++AUCH ALS KASSETTE 1 = 46, CUT 1 (A-Seite)
N: Pinyin-Text der ersten Strophe vorhanden!
R: Xiaodiao, Hua deng diao; gan ma diao]
M: 4/4
L: 1/16
K: A
f2fec3ef6a2 | e2f2fec2B2cBA2F2 |
e2fac2ceB2cBA2E2 | FAB2BAE2F8 |
B2B4Bec3eB2A2 | FAB2BAE2F8 |
ec2ce2cef6a2 | e2f2fec2B2cBA2F2 |
e2fac2ceB2cBA2E2 | FAB2BAE2F8 |
B2B4efc3eB2A2 | FAB2BAE2F8

@@@ Tune index: 6554
